dist/svgs/unicons/line/times-square.svg

<svg xmlns="http://www.w3.org/2000/svg" viewBox="0 0 24 24"><path d="M15.71 8.29a1 1 0 00-1.42 0L12 10.59l-2.29-2.3a1 1 0 00-1.42 1.42l2.3 2.29-2.3 2.29a1 1 0 000 1.42 1 1 0 001.42 0l2.29-2.3 2.29 2.3a1 1 0 001.42 0 1 1 0 000-1.42L13.41 12l2.3-2.29a1 1 0 000-1.42zM19 2H5a3 3 0 00-3 3v14a3 3 0 003 3h14a3 3 0 003-3V5a3 3 0 00-3-3zm1 17a1 1 0 01-1 1H5a1 1 0 01-1-1V5a1 1 0 011-1h14a1 1 0 011 1z"/></svg>

<svg xmlns="http://www.w3.org/2000/svg" viewBox="0 0 24 24"><path d="M15.71,8.29a1,1,0,0,0-1.42,0L12,10.59,9.71,8.29A1,1,0,0,0,8.29,9.71L10.59,12l-2.3,2.29a1,1,0,0,0,0,1.42,1,1,0,0,0,1.42,0L12,13.41l2.29,2.3a1,1,0,0,0,1.42,0,1,1,0,0,0,0-1.42L13.41,12l2.3-2.29A1,1,0,0,0,15.71,8.29ZM19,2H5A3,3,0,0,0,2,5V19a3,3,0,0,0,3,3H19a3,3,0,0,0,3-3V5A3,3,0,0,0,19,2Zm1,17a1,1,0,0,1-1,1H5a1,1,0,0,1-1-1V5A1,1,0,0,1,5,4H19a1,1,0,0,1,1,1Z"/></svg>
